X:1
T:Les Pêcheurs de Perles
T:Les Pêcheurs de Perles
T:Prélude
T: Georges BIZET Transcription : O. RISSER-MAROIX
C:G. Bizet
%%score { ( 1 4 6 ) | ( 2 3 5 ) }
L:1/8
Q:1/4=66
M:3/4
K:G
V:1 treble nm="Piano" snm="Pno."
V:4 treble 
V:6 treble 
V:2 bass 
V:3 bass 
V:5 bass 
V:1
"^Andante"!ff! [dd']2 z4 | z6 | [G,D]4 E2 | G4 F2 | A,6 | C4 x2 | ([G,D]4 E2) | F4 GF | _B,6 | %9
 [A,F]4- [A,F] z | (d4 eB | d2 dc BA | c2- cB GE | [CD-]4 [A,D]2) | (d2- dg fe | f2- fe cF | _B,6 | %17
 [A,F]4- [A,F]) z | G6 | c6 | B6 | c6 | (d4 e2 | A6 | _B6 | [Af]4- [Af]) z |"_cresc." d'4 e'b | %27
 f6 | g6 | [Fc]4 [Fcd] z | d'2- d'g' f'e' | f'2- f'e' c'f | _B6 | [Af]4 _B2 | [Af]4 _B2 | %35
 [Adf]4 [FAd]2 | [FA]2 [FA]2 [Ad]2 | [Bfa]4 [Adf]2 | [Ad]2 [Adf]2 [dfa]2 | [dd']3 [fa]3 | %40
 [dd']3 [fa]3 | d' z2 z3 | [Dd]6 |] %43
V:2
 [D,,D,]!p!^C, D,2 D,2 | D,^C, D,2 D,2 | D,^C, D,2 D,2 | D,^C, D,2 D,2 | D,^C, D,2 D,2 | %5
 D,^C, D,2 D,2 | D,^C, D,2 D,2 | D,^C, D,2 D,2 | D,^C, D,2 D,2 | D,^C, D,2 D,2 | %10
"_cresc." D,^C, D,2 D,2 | D,^C, D,2 D,2 | D,^C, D,2 D,2 | D,^C, D,2 D,2 | G,6 | D,^C, D,2 D,2 | %16
 D,^C, D,2 D,2 | D,^C, D,2 D,2 |!p! D,^C, D,2 D,2 | D,^C, D,2 D,2 | D,^C, D,2 D,2 | D,^C, D,2 D,2 | %22
 D,^C, D,2 D,2 | D,^C, D,2 D,2 | D,^C, D,2 D,2 | D,^C, D,2 D,2 | D,^C, D,2 D,2 | D,^C, D,2 D,2 | %28
 D,^C, D,2 D,2 | D,^C, D,2 D,2 | D,^C, D,2 D,2 | D,^C, D,2 D,2 | D,^C, D,2 D,2 | D,^C, D,2 D,2 | %34
 D,^C, D,2 D,2 |!f! D,,^C,, =C,,B,,, _B,,,A,,, | D,,^C,, =C,,B,,, _B,,,A,,, | %37
 D,,^C,, =C,,B,,, _B,,,A,,, | D,,^C,, =C,,B,,, _B,,,A,,, |!ff! [D,A,]3 [F,,F,]3 | %40
 [D,A,]3 [F,,F,]3 | D,3 [F,,F,]3 |!fff! [D,D]6 |] %43
V:3
 x6 | x6 | (B,,6 | A,,6 | G,,6 | F,,4 =C,2 | B,,6 | A,,6 | G,,6 | (D,,4 D,,)) z | (B,,6 | A,,6 | %12
 G,,6 | F,,4 =C,2) | (B,,6 | A,,6 | G,,6 | D,,4- D,,) z | B,,2 z4 | A,,2 z4 | G,,2 z4 | %21
 F,,2 z2 ^C,2 | B,,2 z4 | A,,2 z4 | G,,2 z4 | D,,2 z4 | B,,2 z4 | A,,2 z4 | G,,2 z4 | %29
 F,,2 z2 =C,2 | B,,2 z4 | A,,2 z4 | G,,2 z4 | D,,2 z2 G,,2 | D,,2 z2 D,,2 | x6 | x6 | x6 | x6 | %39
 x6 | x6 | [F,A,] x5 | x6 |] %43
V:4
 x6 | x6 | x6 | C6 | A3 GFE | A3 F [A,D]2 | x6 | A,6 | F4 ED | x6 | G6 | F6 | G4 B,2 | x6 | x6 | %15
 x6 | F2 FE ED | x6 | d4 e2 | g4 f2 | a2- ag fe | a3 f d2 | G6 | f4 gf | f4 ed | x5 z | g6 | %27
 d'2- d'c' ba | c'2- c'b ge | z4 x2 | g6 | c'6 | f2 fe ed | x4 ed | x4 ed | x6 | x6 | x6 | x6 | %39
 x6 | x6 | x6 | x6 |] %43
V:5
 x6 | x6 | x6 | x6 | x6 | x6 | x6 | x6 | x6 | x6 | x6 | x6 | x6 | x6 | D,^C, D,2 D,2 | x6 | x6 | %17
 x6 | x6 | x6 | x6 | x6 | x6 | x6 | x6 | x6 | x6 | x6 | x6 | x6 | x6 | x6 | x6 | x6 | x6 | x6 | %36
 x6 | x6 | x6 | x6 | x6 | x6 | x6 |] %43
V:6
 x6 | x6 | x6 | x6 | x6 | x6 | x6 | x6 | x6 | x6 | x6 | x6 | x6 | x6 | x6 | x6 | x6 | x6 | x6 | %19
 x6 | x6 | x6 | x6 | x6 | x6 | x6 | x6 | x6 | x6 | d4 z z | x6 | x6 | x6 | x6 | x6 | x6 | %36
 x2 d2 f2 | x6 | x6 | x6 | x6 | x6 | x6 |] %43

